X: 112
T: mazurka van antoinette
C: trad
M: 3/4
L: 1/8
R: mazurka
K: Gmaj
d B>d|:g2 f2 e2|d2 G>A B>G|c2 A>B c>d|B>A G>A B>G|
|g2 f2 e2|d2 G>A B>G|c2 B2 A2|1(G2 G)d B>d:|2(G2 G)d e>d||
|:B2 G>d e>d|c2 A>d e>d|f>e (3ded (3cdc|B>A G>d e>d|
|B2 G>d e>d|c2 A>d e>d|(3fed (3cBA (3def|1(g2 g)d e>d:|2(g2 g)d B>d||
